app/images/src/wa.svg

<svg width="48.00000000000001" height="48.00000000000001" xmlns="http://www.w3.org/2000/svg">

 <g>
  <title>background</title>
  <rect fill="none" id="canvas_background" height="402" width="582" y="-1" x="-1"/>
 </g>
 <g>
  <title>Layer 1</title>
  <ellipse ry="19.999952" rx="21.267555" id="svg_3" cy="24.204665" cx="23.999998" stroke-width="1.5" stroke="#000" fill="#fff"/>
  <path id="svg_1" fill="black" d="m0,24c0,13.2548 10.7452,24 24,24c13.2548,0 24,-10.7452 24,-24c0,-13.2548 -10.7452,-24 -24,-24c-13.2548,0 -24,10.7452 -24,24zm39.0621,-0.9185c-0.0031,7.8668 -6.4026,14.2678 -14.271,14.271l-0.0059,0c-2.3885,-0.0008 -4.7354,-0.6001 -6.8199,-1.737l-7.5653,1.9845l2.0246,-7.3952c-1.2489,-2.1643 -1.906,-4.6193 -1.905,-7.1346c0.0032,-7.8685 6.4052,-14.2702 14.2713,-14.2702c3.8177,0.00165 7.4009,1.4879 10.0953,4.1854c2.6944,2.6974 4.1775,6.2829 4.1759,10.0961z" clip-rule="evenodd" fill-rule="evenodd"/>
  <path id="svg_2" fill="black" d="m13.8265,34.2096l4.4894,-1.1777l0.4331,0.2571c1.8212,1.0807 3.9088,1.6525 6.0373,1.6534l0.0048,0c6.5378,0 11.8588,-5.3212 11.8615,-11.8617c0.0012,-3.1695 -1.2314,-6.1496 -3.4709,-8.3917c-2.2395,-2.2421 -5.2177,-3.4775 -8.3859,-3.4786c-6.5429,0 -11.864,5.3207 -11.8666,11.8607c-0.0009,2.2413 0.6262,4.424 1.8136,6.3125l0.282,0.4488l-1.1983,4.3772zm17.6659,-8.0555c0.2487,0.1202 0.4167,0.2013 0.4884,0.321c0.0891,0.1487 0.0891,0.8627 -0.2079,1.6958c-0.2973,0.8329 -1.7218,1.5931 -2.407,1.6954c-0.6143,0.0919 -1.3917,0.1302 -2.2459,-0.1413c-0.518,-0.1643 -1.1821,-0.3837 -2.0329,-0.7511c-3.3429,-1.4435 -5.6021,-4.6835 -6.029,-5.2959c-0.0299,-0.0429 -0.0509,-0.0729 -0.0625,-0.0884l-0.0029,-0.0039c-0.1887,-0.2518 -1.4532,-1.9389 -1.4532,-3.6849c0,-1.6425 0.8069,-2.5035 1.1783,-2.8998c0.0254,-0.0271 0.0488,-0.0521 0.0698,-0.075c0.3268,-0.357 0.7132,-0.4462 0.9509,-0.4462c0.2377,0 0.4756,0.0022 0.6834,0.0126c0.0256,0.0013 0.0523,0.0011 0.0799,0.001c0.2078,-0.0013 0.4668,-0.0028 0.7224,0.6111c0.0983,0.2363 0.2422,0.5865 0.3939,0.9558c0.3068,0.7471 0.6459,1.5725 0.7055,1.6919c0.0892,0.1785 0.1486,0.3867 0.0297,0.6248c-0.0178,0.0357 -0.0343,0.0694 -0.0501,0.1015c-0.0892,0.1823 -0.1549,0.3164 -0.3064,0.4933c-0.0596,0.0696 -0.1212,0.1446 -0.1828,0.2195c-0.1226,0.1494 -0.2453,0.2988 -0.3521,0.4052c-0.1785,0.1778 -0.3644,0.3708 -0.1564,0.7278c0.208,0.357 0.9237,1.5246 1.9838,2.4702c1.1395,1.0164 2.1299,1.446 2.6319,1.6638c0.098,0.0425 0.1774,0.0769 0.2357,0.1061c0.3564,0.1785 0.5645,0.1487 0.7725,-0.0893c0.208,-0.2379 0.8914,-1.0412 1.1291,-1.3982c0.2376,-0.3568 0.4755,-0.2974 0.8023,-0.1784c0.3269,0.1191 2.08,0.9816 2.4366,1.1601c0.0696,0.0349 0.1347,0.0663 0.195,0.0955z" clip-rule="evenodd" fill-rule="evenodd"/>
 </g>
</svg>

<?xml version="1.0" encoding="UTF-8" standalone="no"?> <svg width="48" height="48" viewBox="0 0 48 48" fill="white" xmlns="http://www.w3.org/2000/svg">
<path fill-rule="evenodd" clip-rule="evenodd" d="M0 24C0 37.2548 10.7452 48 24 48C37.2548 48 48 37.2548 48 24C48 10.7452 37.2548 0 24 0C10.7452 0 0 10.7452 0 24ZM39.0621 23.0815C39.059 30.9483 32.6595 37.3493 24.7911 37.3525H24.7852C22.3967 37.3517 20.0498 36.7524 17.9653 35.6155L10.4 37.6L12.4246 30.2048C11.1757 28.0405 10.5186 25.5855 10.5196 23.0702C10.5228 15.2017 16.9248 8.8 24.7909 8.8C28.6086 8.80165 32.1918 10.2879 34.8862 12.9854C37.5806 15.6828 39.0637 19.2683 39.0621 23.0815Z" fill="black"/>
<path fill-rule="evenodd" clip-rule="evenodd" d="M13.8265 34.2096L18.3159 33.0319L18.749 33.289C20.5702 34.3697 22.6578 34.9415 24.7863 34.9424H24.7911C31.3289 34.9424 36.6499 29.6212 36.6526 23.0807C36.6538 19.9112 35.4212 16.9311 33.1817 14.689C30.9422 12.4469 27.964 11.2115 24.7958 11.2104C18.2529 11.2104 12.9318 16.5311 12.9292 23.0711C12.9283 25.3124 13.5554 27.4951 14.7428 29.3836L15.0248 29.8324L13.8265 34.2096ZM31.4924 26.1541C31.7411 26.2743 31.9091 26.3554 31.9808 26.4751C32.0699 26.6238 32.0699 27.3378 31.7729 28.1709C31.4756 29.0038 30.0511 29.764 29.3659 29.8663C28.7516 29.9582 27.9742 29.9965 27.12 29.725C26.602 29.5607 25.9379 29.3413 25.0871 28.9739C21.7442 27.5304 19.485 24.2904 19.0581 23.678C19.0282 23.6351 19.0072 23.6051 18.9956 23.5896L18.9927 23.5857C18.804 23.3339 17.5395 21.6468 17.5395 19.9008C17.5395 18.2583 18.3464 17.3973 18.7178 17.001C18.7432 16.9739 18.7666 16.9489 18.7876 16.926C19.1144 16.569 19.5008 16.4798 19.7385 16.4798C19.9762 16.4798 20.2141 16.482 20.4219 16.4924C20.4475 16.4937 20.4742 16.4935 20.5018 16.4934C20.7096 16.4921 20.9686 16.4906 21.2242 17.1045C21.3225 17.3408 21.4664 17.691 21.6181 18.0603C21.9249 18.8074 22.264 19.6328 22.3236 19.7522C22.4128 19.9307 22.4722 20.1389 22.3533 20.377C22.3355 20.4127 22.319 20.4464 22.3032 20.4785C22.214 20.6608 22.1483 20.7949 21.9968 20.9718C21.9372 21.0414 21.8756 21.1164 21.814 21.1913C21.6914 21.3407 21.5687 21.4901 21.4619 21.5965C21.2834 21.7743 21.0975 21.9673 21.3055 22.3243C21.5135 22.6813 22.2292 23.8489 23.2893 24.7945C24.4288 25.8109 25.4192 26.2405 25.9212 26.4583C26.0192 26.5008 26.0986 26.5352 26.1569 26.5644C26.5133 26.7429 26.7214 26.7131 26.9294 26.4751C27.1374 26.2372 27.8208 25.4339 28.0585 25.0769C28.2961 24.7201 28.534 24.7795 28.8608 24.8985C29.1877 25.0176 30.9408 25.8801 31.2974 26.0586C31.367 26.0935 31.4321 26.1249 31.4924 26.1541Z" fill="black"/>
</svg>
